packages/icons/svg/Fill/droplet-off.svg

<svg fill="none" height="24" viewBox="0 0 24 24" width="24" xmlns="http://www.w3.org/2000/svg"><path clip-rule="evenodd" d="m18.9688 16.1405c1.033-2.709.499-5.906-1.627-8.10796l-4.559-4.727c-.186-.192-.442-.303-.711-.306-.269-.002-.527.105-.717.295l-2.61104 2.621zm-12.98101-7.32403c-2.176 2.96103-1.974 7.18503.647 9.89903 1.405 1.456 3.283 2.267 5.29001 2.285h.002c1.704.013 3.321-.552 4.646-1.599zm-1.2808-5.52353 16.00001 15.99996c.391.391.391 1.023 0 1.414-.195.195-.451.293-.707.293s-.512-.098-.707-.293l-16.00001-15.99996c-.391-.391-.391-1.023 0-1.414s1.023-.391 1.414 0z" fill="#6b7280" fill-rule="evenodd"/></svg>

<svg width="24" height="24" viewBox="0 0 24 24" fill="none" xmlns="http://www.w3.org/2000/svg">
<g id="Icon/Fill/droplet-off">
<path id="Mask" fill-rule="evenodd" clip-rule="evenodd" d="M18.9688 16.1406C20.0018 13.4316 19.4678 10.2346 17.3418 8.0326L12.7828 3.3056C12.5968 3.1136 12.3408 3.0026 12.0718 2.9996C11.8028 2.9976 11.5448 3.1046 11.3548 3.2946L8.74381 5.9156L18.9688 16.1406ZM5.98781 8.8164C3.81181 11.7774 4.01381 16.0014 6.63481 18.7154C8.03981 20.1714 9.91781 20.9824 11.9248 21.0004H11.9268C13.6308 21.0134 15.2478 20.4484 16.5728 19.4014L5.98781 8.8164ZM4.70701 3.293L20.707 19.293C21.098 19.684 21.098 20.316 20.707 20.707C20.512 20.902 20.256 21 20 21C19.744 21 19.488 20.902 19.293 20.707L3.29301 4.707C2.90201 4.316 2.90201 3.684 3.29301 3.293C3.68401 2.902 4.31601 2.902 4.70701 3.293Z" fill="#000000"/>
</g>
</svg>
